img/main_logos.svg

<?xml version="1.0" encoding="UTF-8"?>
<svg id="SVGDoc" width="181" height="56" xmlns="http://www.w3.org/2000/svg" version="1.1" xmlns:xlink="http://www.w3.org/1999/xlink" xmlns:avocode="https://avocode.com/" viewBox="0 0 181 56"><defs></defs><desc>Generated with Avocode.</desc><g><g><title>Logo</title><g><title>logos</title><path d="M31.85404,19.90459l-5.25375,-9.19129h10.50751zM30.54003,20.67108h-10.50762l5.25387,-9.19129zM33.16805,20.67108l5.25364,-9.19129l5.25398,9.19129zM43.67567,22.20158l-5.25398,9.18797l-5.25364,-9.18797zM30.54003,22.20158l-5.25375,9.18797l-5.25387,-9.18797zM18.7184,22.96683l5.25295,9.18714h-10.50671zM39.73765,32.15396l5.25204,-9.18714l5.25364,9.18714zM37.1078,9.18404h-10.50751l5.25375,-9.19046zM39.73765,33.68612h10.50568l-5.25364,9.18797zM13.46465,33.68612h10.50671l-5.25295,9.18797zM12.15075,34.45096l5.25295,9.19046h-10.50671zM46.30335,43.64142l5.25398,-9.19046l5.25375,9.19046zM56.81109,45.17191l-5.25375,9.18714l-5.25398,-9.18714zM43.67567,45.17191l-5.25398,9.18714l-5.25364,-9.18714zM6.897,45.17191h10.50671l-5.25295,9.18714zM5.58207,45.93924l5.25375,9.18838h-10.50476zM31.85404,45.93924l5.25375,9.18838h-10.50751zM44.98969,45.93924l5.25364,9.18838h-10.50568zM63.37702,55.12762h-10.50396l5.25204,-9.18838z" fill="#000000" fill-opacity="1"></path><path d="M31.85404,19.90459l-5.25375,-9.19129h10.50751zM30.54003,20.67108h-10.50762l5.25387,-9.19129zM33.16805,20.67108l5.25364,-9.19129l5.25398,9.19129zM43.67567,22.20158l-5.25398,9.18797l-5.25364,-9.18797zM30.54003,22.20158l-5.25375,9.18797l-5.25387,-9.18797zM18.7184,22.96683l5.25295,9.18714h-10.50671zM39.73765,32.15396l5.25204,-9.18714l5.25364,9.18714zM37.1078,9.18404h-10.50751l5.25375,-9.19046zM39.73765,33.68612h10.50568l-5.25364,9.18797zM13.46465,33.68612h10.50671l-5.25295,9.18797zM12.15075,34.45096l5.25295,9.19046h-10.50671zM46.30335,43.64142l5.25398,-9.19046l5.25375,9.19046zM56.81109,45.17191l-5.25375,9.18714l-5.25398,-9.18714zM43.67567,45.17191l-5.25398,9.18714l-5.25364,-9.18714zM6.897,45.17191h10.50671l-5.25295,9.18714zM5.58207,45.93924l5.25375,9.18838h-10.50476zM31.85404,45.93924l5.25375,9.18838h-10.50751zM44.98969,45.93924l5.25364,9.18838h-10.50568zM63.37702,55.12762h-10.50396l5.25204,-9.18838z" fill="#ffffff" fill-opacity="1"></path></g><g><title>Waxom</title><g transform="matrix(1,0,0,1,66,15)"><text dominant-baseline="text-before-edge" style="fill: #ffffff; fill-opacity: 1; font-size: 34px; font-family: 'Raleway', 'Raleway-Regular'; font-weight: normal; font-style: none" ><tspan style="letter-spacing: -1.36px; font-kerning: normal">Waxom</tspan></text></g></g></g></g></svg>

<svg xmlns="http://www.w3.org/2000/svg" width="64" height="56" viewBox="0 0 64 56"><g><g><path d="M31.854 19.905L26.6 10.713h10.508zm-1.314.766H20.032l5.254-9.191zm2.628 0l5.254-9.191 5.254 9.19zm10.508 1.53l-5.254 9.188-5.254-9.188zm-13.136 0l-5.254 9.188-5.254-9.188zm-11.822.766l5.253 9.187H13.465zm21.02 9.187l5.252-9.187 5.253 9.187zm-2.63-22.97H26.6l5.254-9.19zm2.63 24.502h10.505l-5.253 9.188zm-26.273 0H23.97l-5.253 9.188zm-1.314.765l5.253 9.19H6.897zm34.152 9.19l5.254-9.19 5.254 9.19zm10.508 1.531l-5.254 9.187-5.254-9.187zm-13.135 0l-5.254 9.187-5.254-9.187zm-36.779 0h10.507L12.15 54.36zm-1.315.767l5.254 9.189H.33zm26.272 0l5.254 9.189H26.6zm13.136 0l5.253 9.189H39.738zm18.387 9.189H52.873l5.252-9.189z"/><path fill="#fff" d="M31.854 19.905L26.6 10.713h10.508zm-1.314.766H20.032l5.254-9.191zm2.628 0l5.254-9.191 5.254 9.19zm10.508 1.53l-5.254 9.188-5.254-9.188zm-13.136 0l-5.254 9.188-5.254-9.188zm-11.822.766l5.253 9.187H13.465zm21.02 9.187l5.252-9.187 5.253 9.187zm-2.63-22.97H26.6l5.254-9.19zm2.63 24.502h10.505l-5.253 9.188zm-26.273 0H23.97l-5.253 9.188zm-1.314.765l5.253 9.19H6.897zm34.152 9.19l5.254-9.19 5.254 9.19zm10.508 1.531l-5.254 9.187-5.254-9.187zm-13.135 0l-5.254 9.187-5.254-9.187zm-36.779 0h10.507L12.15 54.36zm-1.315.767l5.254 9.189H.33zm26.272 0l5.254 9.189H26.6zm13.136 0l5.253 9.189H39.738zm18.387 9.189H52.873l5.252-9.189z"/></g></g></svg>
